public/images/ai12.svg

<svg width="100" height="100" viewBox="0 0 100 100" fill="none" xmlns="http://www.w3.org/2000/svg">
<path d="M7.25923 34.9004C1.35764 41.2766 2.80715 53.2063 10.4689 61.5364C18.1306 69.8666 29.209 71.4093 35.1106 65.0331C41.0122 58.6569 39.5627 46.7272 31.901 38.397C24.2392 30.0668 13.2644 28.5242 7.25923 34.9004ZM12.6431 37.5743C17.3023 32.5351 25.8958 33.6663 31.7974 40.0425C37.699 46.4187 38.7344 55.6745 34.0752 60.7137C29.4161 65.753 20.8225 64.6217 14.9209 58.2455C9.01935 51.8693 7.98399 42.6136 12.6431 37.5743Z" fill="url(#paint0_radial_1_7409)"/>
<path d="M29.8302 37.2658H33.0399C33.5575 37.2658 33.8682 37.6772 33.8682 38.0885V41.2766C33.8682 41.7908 33.454 42.0994 33.0399 42.0994H29.8302C29.3125 42.0994 29.0019 41.688 29.0019 41.2766V38.0885C28.8984 37.5743 29.3125 37.2658 29.8302 37.2658Z" fill="#FF7F2A"/>
<path fill-rule="evenodd" clip-rule="evenodd" d="M29.4434 37.7663C29.3909 37.814 29.3533 37.8828 29.3796 38.0135L29.3871 38.0506V41.2766C29.3871 41.5087 29.5561 41.7167 29.8302 41.7167H33.0398C33.2735 41.7167 33.483 41.5488 33.483 41.2766V38.0885C33.483 37.8564 33.3139 37.6483 33.0398 37.6483H29.8302C29.6416 37.6483 29.5105 37.7052 29.4434 37.7663ZM28.9228 37.2023C29.1663 36.9806 29.5011 36.8832 29.8302 36.8832H33.0398C33.8011 36.8832 34.2533 37.4978 34.2533 38.0885V41.2766C34.2533 42.0327 33.6345 42.4819 33.0398 42.4819H29.8302C29.0689 42.4819 28.6167 41.8672 28.6167 41.2766V38.1229C28.5555 37.7559 28.6738 37.429 28.9228 37.2023Z" fill="#D45500"/>
<path d="M3.11773 43.7448H10.6759C11.8148 43.7448 12.7466 44.6704 12.7466 45.8016V53.3091C12.7466 54.4404 11.8148 55.3659 10.6759 55.3659H3.11773C1.97883 55.3659 1.047 54.4404 1.047 53.3091V45.8016C1.047 44.6704 1.87529 43.7448 3.11773 43.7448Z" fill="#FF7F2A"/>
<path fill-rule="evenodd" clip-rule="evenodd" d="M3.11776 44.1274C2.10066 44.1274 1.43218 44.8689 1.43218 45.8017V53.3091C1.43218 54.2291 2.19157 54.9834 3.11776 54.9834H10.6759C11.6021 54.9834 12.3615 54.2291 12.3615 53.3091V45.8017C12.3615 44.8817 11.6021 44.1274 10.6759 44.1274H3.11776ZM0.661865 45.8017C0.661865 44.4719 1.64997 43.3622 3.11776 43.3622H10.6759C12.0276 43.3622 13.1318 44.4591 13.1318 45.8017V53.3091C13.1318 54.6516 12.0276 55.7485 10.6759 55.7485H3.11776C1.76614 55.7485 0.661865 54.6516 0.661865 53.3091V45.8017Z" fill="#D45500"/>
<path d="M32.4187 58.9654H36.9743C37.699 58.9654 38.2167 59.4796 38.2167 60.1995V64.7245C38.2167 65.4444 37.699 65.9586 36.9743 65.9586H32.4187C31.6939 65.9586 31.1762 65.4444 31.1762 64.7245V60.1995C31.1762 59.4796 31.7974 58.9654 32.4187 58.9654Z" fill="#FF7F2A"/>
<path fill-rule="evenodd" clip-rule="evenodd" d="M32.4186 59.348C31.9891 59.348 31.5613 59.7112 31.5613 60.1995V64.7245C31.5613 65.2331 31.9066 65.5761 32.4186 65.5761H36.9742C37.4863 65.5761 37.8315 65.2331 37.8315 64.7245V60.1995C37.8315 59.6909 37.4863 59.348 36.9742 59.348H32.4186ZM30.791 60.1995C30.791 59.248 31.6057 58.5828 32.4186 58.5828H36.9742C37.9117 58.5828 38.6018 59.2683 38.6018 60.1995V64.7245C38.6018 65.6557 37.9117 66.3412 36.9742 66.3412H32.4186C31.4811 66.3412 30.791 65.6557 30.791 64.7245V60.1995Z" fill="#D45500"/>
<path d="M55.6472 49.1909C55.6472 51.0525 55.1817 52.4883 54.2507 53.4983C53.3197 54.496 51.9845 55.0071 50.245 55.0071C48.5055 55.0071 47.1702 54.5082 46.2392 53.4983C45.3082 52.5005 44.8427 51.0525 44.8427 49.1787C44.8427 47.3048 45.3082 45.869 46.2392 44.8835C47.1702 43.8979 48.5177 43.399 50.2572 43.399C51.9967 43.399 53.332 43.8979 54.263 44.8956C55.1817 45.8934 55.6472 47.3292 55.6472 49.1909ZM47.3662 49.1909C47.3662 50.4563 47.6112 51.3932 48.089 52.0381C48.5667 52.6708 49.2895 52.9994 50.245 52.9994C52.1682 52.9994 53.1237 51.7339 53.1237 49.203C53.1237 46.66 52.1682 45.3945 50.2572 45.3945C49.3017 45.3945 48.579 45.7109 48.089 46.3558C47.599 47.0007 47.3662 47.9376 47.3662 49.1909Z" fill="#0C94C2"/>
<path d="M61.3312 55.0071C58.624 55.0071 57.2765 53.5348 57.2765 50.5902C57.2765 49.13 57.644 48.0106 58.379 47.2319C59.114 46.4531 60.1675 46.0759 61.5395 46.0759C62.544 46.0759 63.4382 46.2706 64.2467 46.66L63.5485 48.4851C63.181 48.3391 62.8257 48.2175 62.5072 48.1201C62.1887 48.0228 61.8702 47.9741 61.5395 47.9741C60.3022 47.9741 59.6897 48.838 59.6897 50.578C59.6897 52.2693 60.3022 53.1089 61.5395 53.1089C61.9927 53.1089 62.4215 53.0481 62.8012 52.9264C63.1932 52.8047 63.573 52.6222 63.965 52.3545V54.3622C63.5852 54.6055 63.1932 54.7759 62.8012 54.8611C62.4215 54.9584 61.9315 55.0071 61.3312 55.0071Z" fill="#0C94C2"/>
<path d="M69.6367 53.1332C70.0532 53.1332 70.5432 53.048 71.1312 52.8655V54.6055C70.5432 54.8732 69.8204 54.9949 68.9629 54.9949C68.0197 54.9949 67.3214 54.7515 66.8927 54.277C66.4639 53.8025 66.2434 53.0845 66.2434 52.1355V47.9741H65.1042V46.9763L66.4149 46.2098L67.1009 44.3846H68.6199V46.2219H71.0454V47.9862H68.6199V52.1476C68.6199 52.4762 68.7179 52.7317 68.9017 52.8899C69.0854 53.048 69.3304 53.1332 69.6367 53.1332Z" fill="#0C94C2"/>
<path d="M78.3954 54.8489L77.9422 53.6808H77.8809C77.4767 54.1797 77.0724 54.5204 76.6559 54.715C76.2394 54.9097 75.6882 55.0071 75.0022 55.0071C74.1692 55.0071 73.5077 54.7759 73.0299 54.3013C72.5522 53.8268 72.3072 53.1576 72.3072 52.2815C72.3072 51.3689 72.6257 50.6875 73.2749 50.2616C73.9242 49.8236 74.8919 49.5924 76.1904 49.5437L77.6972 49.4951V49.1179C77.6972 48.2418 77.2439 47.8037 76.3497 47.8037C75.6514 47.8037 74.8429 48.0106 73.8997 48.4243L73.1157 46.8303C74.1202 46.3071 75.2227 46.0516 76.4354 46.0516C77.5992 46.0516 78.4934 46.3071 79.1182 46.806C79.7429 47.3049 80.0492 48.0714 80.0492 49.1057V54.8489H78.3954ZM77.6972 50.8579L76.7784 50.8944C76.0924 50.9187 75.5779 51.0404 75.2472 51.2594C74.9164 51.4906 74.7449 51.8313 74.7449 52.2936C74.7449 52.9507 75.1247 53.2914 75.8964 53.2914C76.4477 53.2914 76.8887 53.1332 77.2072 52.8169C77.5379 52.5005 77.6972 52.0868 77.6972 51.5636V50.8579Z" fill="#0C94C2"/>
<path d="M84.5572 54.8489L81.2497 46.2341H83.7242L85.4024 51.1499C85.5862 51.7704 85.7087 52.3545 85.7577 52.9142H85.8067C85.8312 52.4153 85.9537 51.8313 86.1619 51.1499L87.8279 46.2341H90.3024L86.9949 54.8489H84.5572Z" fill="#0C94C2"/>
<path d="M95.4597 55.0071C94.0632 55.0071 92.9729 54.6299 92.1889 53.8633C91.4049 53.0967 91.0129 52.0138 91.0129 50.6145C91.0129 49.1665 91.3804 48.0593 92.1032 47.2683C92.8259 46.4774 93.8304 46.0881 95.1167 46.0881C96.3417 46.0881 97.2972 46.4409 97.9832 47.1345C98.6692 47.8281 99.0122 48.7893 99.0122 50.0061V51.1499H93.4139C93.4384 51.8191 93.6344 52.3423 94.0142 52.7195C94.3817 53.0967 94.9084 53.2792 95.5822 53.2792C96.1089 53.2792 96.5989 53.2306 97.0644 53.1211C97.5299 53.0115 98.0199 52.8412 98.5222 52.61V54.4352C98.1057 54.642 97.6647 54.788 97.1992 54.8976C96.7092 54.9584 96.1334 55.0071 95.4597 55.0071ZM95.1289 47.7429C94.6267 47.7429 94.2347 47.9011 93.9529 48.2174C93.6712 48.5338 93.4997 48.984 93.4629 49.5681H96.7827C96.7704 48.984 96.6234 48.5338 96.3294 48.2174C96.0232 47.9011 95.6312 47.7429 95.1289 47.7429Z" fill="#0C94C2"/>
<defs>
<radialGradient id="paint0_radial_1_7409" cx="0" cy="0" r="1" gradientUnits="userSpaceOnUse" gradientTransform="translate(12.5364 63.7279) rotate(-47.1881) scale(484.43 1611.2)">
<stop stop-color="#008CBE"/>
<stop offset="1" stop-color="#B2FFFF"/>
</radialGradient>
</defs>
</svg>

<svg xmlns="http://www.w3.org/2000/svg" width="100" height="100" fill="none"><path fill="url(#a)" d="M7.26 34.9c-5.902 6.377-4.453 18.306 3.209 26.636s18.74 9.873 24.642 3.497c5.901-6.376 4.452-18.306-3.21-26.636S13.264 28.524 7.259 34.9m5.383 2.674c4.66-5.039 13.253-3.908 19.154 2.468 5.902 6.377 6.937 15.633 2.278 20.672s-13.253 3.908-19.154-2.468c-5.902-6.377-6.937-15.632-2.278-20.672"/><path fill="#FF7F2A" d="M29.83 37.266h3.21c.517 0 .828.411.828.823v3.188c0 .514-.414.822-.828.822h-3.21a.814.814 0 0 1-.828-.822v-3.188c-.104-.515.31-.823.828-.823"/><path fill="#D45500" fill-rule="evenodd" d="M29.443 37.766c-.052.048-.09.117-.063.248l.007.037v3.226c0 .232.17.44.443.44h3.21a.43.43 0 0 0 .443-.44v-3.188a.43.43 0 0 0-.443-.44h-3.21c-.188 0-.32.056-.387.117m-.52-.564c.243-.221.578-.319.907-.319h3.21c.761 0 1.213.615 1.213 1.206v3.188c0 .756-.618 1.205-1.213 1.205h-3.21c-.761 0-1.213-.615-1.213-1.205v-3.154a.99.99 0 0 1 .306-.92" clip-rule="evenodd"/><path fill="#FF7F2A" d="M3.118 43.745h7.558a2.07 2.07 0 0 1 2.07 2.057v7.507a2.07 2.07 0 0 1-2.07 2.057H3.118a2.07 2.07 0 0 1-2.071-2.057v-7.507c0-1.132.828-2.057 2.07-2.057"/><path fill="#D45500" fill-rule="evenodd" d="M3.118 44.127c-1.017 0-1.686.742-1.686 1.675v7.507c0 .92.76 1.674 1.686 1.674h7.558c.926 0 1.685-.754 1.685-1.674v-7.507c0-.92-.759-1.675-1.685-1.675zM.662 45.802c0-1.33.988-2.44 2.456-2.44h7.558a2.454 2.454 0 0 1 2.456 2.44v7.507a2.454 2.454 0 0 1-2.456 2.44H3.118a2.454 2.454 0 0 1-2.456-2.44z" clip-rule="evenodd"/><path fill="#FF7F2A" d="M32.419 58.965h4.555c.725 0 1.243.515 1.243 1.234v4.526c0 .72-.518 1.234-1.243 1.234H32.42c-.725 0-1.243-.515-1.243-1.234V60.2c0-.72.621-1.235 1.243-1.235"/><path fill="#D45500" fill-rule="evenodd" d="M32.419 59.348c-.43 0-.858.363-.858.852v4.525c0 .508.346.851.858.851h4.555c.512 0 .858-.343.858-.851V60.2c0-.51-.346-.852-.858-.852zm-1.628.852c0-.952.815-1.617 1.628-1.617h4.555c.938 0 1.628.685 1.628 1.617v4.525c0 .93-.69 1.616-1.628 1.616H32.42c-.938 0-1.628-.685-1.628-1.616z" clip-rule="evenodd"/><path fill="#0C94C2" d="M55.647 49.19q0 2.794-1.396 4.308c-.931.998-2.267 1.51-4.006 1.51s-3.075-.5-4.006-1.51c-.93-.997-1.396-2.445-1.396-4.32 0-1.873.465-3.309 1.396-4.294.931-.986 2.279-1.485 4.018-1.485q2.61 0 4.006 1.497c.919.997 1.384 2.433 1.384 4.295m-8.28 0c0 1.266.244 2.203.722 2.848.478.633 1.2.961 2.156.961 1.923 0 2.879-1.265 2.879-3.796 0-2.543-.956-3.809-2.867-3.809-.955 0-1.678.317-2.168.962s-.723 1.582-.723 2.835M61.331 55.007c-2.707 0-4.055-1.472-4.055-4.417q0-2.19 1.103-3.358c.735-.779 1.788-1.156 3.16-1.156 1.005 0 1.9.195 2.708.584l-.699 1.825a14 14 0 0 0-1.04-.365 3.3 3.3 0 0 0-.969-.146c-1.237 0-1.85.864-1.85 2.604 0 1.691.613 2.53 1.85 2.53.454 0 .883-.06 1.262-.182a4.3 4.3 0 0 0 1.164-.572v2.008c-.38.243-.772.414-1.164.5q-.57.145-1.47.145M69.637 53.133c.416 0 .906-.085 1.494-.268v1.74c-.588.268-1.31.39-2.168.39-.943 0-1.642-.243-2.07-.718-.43-.474-.65-1.193-.65-2.142v-4.16h-1.139v-.999l1.31-.766.687-1.825h1.519v1.837h2.425v1.764H68.62v4.162c0 .328.098.584.282.742s.428.243.735.243M78.395 54.849l-.453-1.168h-.061c-.404.499-.809.84-1.225 1.034q-.625.292-1.654.292c-.833 0-1.494-.231-1.972-.706-.478-.474-.723-1.143-.723-2.02 0-.912.319-1.593.968-2.02.65-.437 1.617-.669 2.915-.717l1.507-.049v-.377c0-.876-.453-1.314-1.347-1.314-.699 0-1.507.207-2.45.62l-.784-1.594c1.004-.523 2.107-.778 3.32-.778 1.163 0 2.057.255 2.682.754s.931 1.265.931 2.3v5.743zm-.698-3.991-.919.036c-.686.025-1.2.146-1.53.365-.332.232-.503.572-.503 1.035 0 .657.38.997 1.151.997.552 0 .993-.158 1.311-.474.33-.316.49-.73.49-1.253zM84.557 54.849l-3.307-8.615h2.474l1.678 4.916c.184.62.307 1.205.356 1.764h.049c.024-.499.147-1.083.355-1.764l1.666-4.916h2.474l-3.307 8.615zM95.46 55.007c-1.397 0-2.487-.377-3.271-1.144q-1.176-1.15-1.176-3.248c0-1.449.367-2.556 1.09-3.347s1.727-1.18 3.014-1.18c1.225 0 2.18.353 2.866 1.047.686.693 1.03 1.654 1.03 2.871v1.144h-5.6c.025.67.221 1.192.601 1.57.368.377.894.56 1.568.56.527 0 1.017-.05 1.482-.159.466-.11.956-.28 1.458-.511v1.825a6 6 0 0 1-1.323.463c-.49.06-1.066.11-1.74.11m-.331-7.264q-.753 0-1.176.474c-.282.317-.453.767-.49 1.351h3.32c-.013-.584-.16-1.034-.454-1.35-.306-.317-.698-.475-1.2-.475"/><defs><radialGradient id="a" cx="0" cy="0" r="1" gradientTransform="rotate(-47.188 79.223 17.513)scale(484.43 1611.2)" gradientUnits="userSpaceOnUse"><stop stop-color="#008CBE"/><stop offset="1" stop-color="#B2FFFF"/></radialGradient></defs></svg>
